Obsidian-Light/status/scalable/media-playlist-repeat-symbolic.svg

<svg height="16" width="16" xmlns="http://www.w3.org/2000/svg"><path d="m3.5 3c-1.385 0-2.5 1.115-2.5 2.5v5c0 1.385 1.115 2.5 2.5 2.5h1.53125c-.01045-.077518-.03125-.137677-.03125-.21875v-1.78125h-.5c-.831 0-1.5-.669-1.5-1.5v-3c0-.831.669-1.5 1.5-1.5h7c.831 0 1.5.669 1.5 1.5v3c0 .831-.669 1.5-1.5 1.5h-.5v-2l-4 3 4 3v-2h1.5c1.385 0 2.5-1.115 2.5-2.5v-5c0-1.385-1.115-2.5-2.5-2.5z" fill="#bebebe"/></svg>

<?xml version="1.0" encoding="UTF-8" standalone="no"?>
<!-- Created with Inkscape (http://www.inkscape.org/) -->

<svg
   xmlns:dc="http://purl.org/dc/elements/1.1/"
   xmlns:cc="http://creativecommons.org/ns#"
   xmlns:rdf="http://www.w3.org/1999/02/22-rdf-syntax-ns#"
   xmlns:svg="http://www.w3.org/2000/svg"
   xmlns="http://www.w3.org/2000/svg"
   xmlns:sodipodi="http://sodipodi.sourceforge.net/DTD/sodipodi-0.dtd"
   xmlns:inkscape="http://www.inkscape.org/namespaces/inkscape"
   width="16"
   height="16"
   id="svg2"
   sodipodi:version="0.32"
   inkscape:version="0.48.1 r9760"
   version="1.0"
   sodipodi:docname="media-playlist-repeat-symbolic.svg"
   inkscape:output_extension="org.inkscape.output.svg.inkscape">
  <defs
     id="defs4" />
  <sodipodi:namedview
     id="base"
     pagecolor="#ffffff"
     bordercolor="#e7e7e7"
     borderopacity="1"
     inkscape:pageopacity="0.0"
     inkscape:pageshadow="2"
     inkscape:zoom="24.711919"
     inkscape:cx="-8.3377926"
     inkscape:cy="6.3085737"
     inkscape:document-units="px"
     inkscape:current-layer="layer1"
     showgrid="true"
     inkscape:showpageshadow="false"
     showguides="true"
     inkscape:guide-bbox="true"
     inkscape:window-width="1920"
     inkscape:window-height="1022"
     inkscape:window-x="0"
     inkscape:window-y="25"
     inkscape:window-maximized="1">
    <sodipodi:guide
       orientation="1,0"
       position="0,112"
       id="guide2383" />
    <sodipodi:guide
       orientation="0,1"
       position="78.156291,0"
       id="guide2389" />
    <inkscape:grid
       type="xygrid"
       id="grid3672"
       visible="true"
       enabled="true" />
    <sodipodi:guide
       orientation="1,0"
       position="22.008699,4.1542523"
       id="guide2950" />
    <sodipodi:guide
       orientation="0,1"
       position="11.22532,22.008699"
       id="guide2952" />
  </sodipodi:namedview>
  <metadata
     id="metadata7">
    <rdf:RDF>
      <cc:Work
         rdf:about="">
        <dc:format>image/svg+xml</dc:format>
        <dc:type
           rdf:resource="http://purl.org/dc/dcmitype/StillImage" />
        <dc:title></dc:title>
      </cc:Work>
    </rdf:RDF>
  </metadata>
  <g
     inkscape:label="Calque 1"
     inkscape:groupmode="layer"
     id="layer1">
    <path
       inkscape:connector-curvature="0"
       style="fill:#bebebe;fill-opacity:1;fill-rule:nonzero;stroke:none"
       d="M 3.5,3 C 2.115,3 1,4.115 1,5.5 l 0,5 C 1,11.885 2.115,13 3.5,13 l 1.53125,0 C 5.0208,12.922482 5,12.862323 5,12.78125 L 5,11 4.5,11 C 3.669,11 3,10.331 3,9.5 l 0,-3 C 3,5.669 3.669,5 4.5,5 l 7,0 C 12.331,5 13,5.669 13,6.5 l 0,3 c 0,0.831 -0.669,1.5 -1.5,1.5 l -0.5,0 0,-2 -4,3 4,3 0,-2 1.5,0 c 1.385,0 2.5,-1.115 2.5,-2.5 l 0,-5 C 15,4.115 13.885,3 12.5,3 z"
       id="Symbol"
       inkscape:label="#rect2395"
       sodipodi:nodetypes="sssscscsssssssscccccsssss" />
  </g>
</svg>
